X:1
T: Rum and Onions
C:
R:Jig
Q:180
K:G
M:6/8
L:1/16
|:d2G2G2 G2F2G2|B2c2d2 d2B2G2|c2A2A2 F2G2A2|A2B2c2 c2B2A2|
d2G2G2 G2F2G2|B2c2d2 d2B2G2|A2A2A2 d2c2A2|G4B2 G6:|
|:g2e2e2 e2^d2e2|b2e2e2 e2f2g2|f2d2d2 d2^c2d2|a2d2d2 d2e2f2|
g2e2e2 e2^d2e2|b2e2e2 e2f2g2|f2f2f2 e2f2g2|e4g2 e6:|
